X:2606
T:Hogmany Strathspey
O:england
S:One of Nathaniel Gow's single sheets
M:4/4
L:1/8
K:G
D|G>GDB, DGDB,|E<AAG GFED|G>GDB, DGDB,|E<A G/F/E/F/ G2:|]
B/C/|d>dBG BdBG|ceag gfed|g>geB egeB|gfe^d e3 e/f/|
ggff e>ed>d|caBg A>GFD|G>GDB, DGDB,|E<AGF G3|]


